icons/svgs/box-open-outline.svg

<svg width="25" height="24" viewBox="0 0 25 24" fill="none" xmlns="http://www.w3.org/2000/svg">
<path d="M0.664286 6.92188L2.26585 3.67969C2.38304 3.44531 2.65647 3.28906 2.92991 3.32812L12.5002 4.5L9.21897 9.92969C8.94554 10.4375 8.3596 10.6719 7.81272 10.5156L1.44554 8.67969C0.664286 8.48438 0.312724 7.625 0.664286 6.92188ZM12.5002 4.5L22.0315 3.32812C22.3049 3.28906 22.5783 3.40625 22.6955 3.67969L24.2971 6.92188C24.6487 7.625 24.2971 8.48438 23.5158 8.67969L17.1487 10.5156C16.6018 10.6719 16.0158 10.4375 15.7424 9.92969L12.5002 4.5ZM12.4221 7H12.5393H12.4221ZM20.6252 10.8281L22.5002 10.2812V16.8047C22.5002 17.6641 21.9143 18.4062 21.0549 18.6406L13.0862 20.6328C12.6955 20.7109 12.2658 20.7109 11.8752 20.6328L3.90647 18.6406C3.08616 18.4062 2.50022 17.6641 2.50022 16.8047V10.2812L4.37522 10.8281V16.8047L11.5627 18.6016V9.1875C11.5627 8.67969 11.9533 8.25 12.5002 8.25C13.008 8.25 13.4377 8.67969 13.4377 9.1875V18.6016L20.6252 16.8047V10.8281Z" fill="black"/>
</svg>

<svg xmlns="http://www.w3.org/2000/svg" width="24" height="24" fill="currentColor" class="icon-box-open-outline" viewBox="0 0 24 24">
  <mask id="a" width="25" height="18" x="0" y="3" maskUnits="userSpaceOnUse" style="mask-type:alpha">
    <path d="M.664 6.922 2.266 3.68a.66.66 0 0 1 .664-.352L12.5 4.5 9.22 9.93c-.273.508-.86.742-1.406.586L1.446 8.68C.664 8.484.313 7.625.664 6.922M12.5 4.5l9.532-1.172c.273-.039.546.078.663.352l1.602 3.242c.352.703 0 1.562-.781 1.758l-6.367 1.836a1.21 1.21 0 0 1-1.407-.586zM12.422 7h.117zm8.203 3.828 1.875-.547v6.524c0 .86-.586 1.601-1.445 1.836l-7.969 1.992c-.39.078-.82.078-1.21 0l-7.97-1.992A1.92 1.92 0 0 1 2.5 16.805V10.28l1.875.547v5.977l7.188 1.797V9.188c0-.508.39-.938.937-.938a.95.95 0 0 1 .938.938v9.414l7.187-1.797z"/>
  </mask>
  <g mask="url(#a)">
    <path d="M0 0h24v24H0z"/>
  </g>
</svg>
